X:240
T: Over the Bridge to Peggy
S: "Roche Collection of Traditional Irish Music" [III/25/82]
L: 1/8
M: 4/4
R: reel
K: Dmix
dAAB cdBA | GEEB c2 Bc | dAAB cdBA | GEcE ED D2 :|
dffa abaf | edef g2 fe | dffa abaf | dfaf e2 e2 |
dffa abaf | edef g2 fg | afge fded | cAGE D2 D2 ||

